exported-svg/chevron-up.svg

<svg height="24" viewBox="0 0 24 24" width="24" xmlns="http://www.w3.org/2000/svg"><path d="m12.5 10.2071068 5.6464466 5.6464466c.1952622.1952621.5118446.1952621.7071068 0 .1952621-.1952622.1952621-.5118446 0-.7071068l-6-5.99999999c-.1952622-.19526215-.5118446-.19526215-.7071068 0l-5.99999999 5.99999999c-.19526215.1952622-.19526215.5118446 0 .7071068.19526215.1952621.51184463.1952621.70710678 0z"/></svg>

<?xml version="1.0" encoding="UTF-8"?>
<svg width="24px" height="24px" viewBox="0 0 24 24" version="1.1" xmlns="http://www.w3.org/2000/svg" xmlns:xlink="http://www.w3.org/1999/xlink">
    <!-- Generator: Sketch 55.2 (78181) - https://sketchapp.com -->
    <title>chevron-up</title>
    <desc>Created with Sketch.</desc>
    <g id="chevron-up" stroke="none" stroke-width="1" fill="none" fill-rule="evenodd">
        <path d="M12.5,10.2071068 L18.1464466,15.8535534 C18.3417088,16.0488155 18.6582912,16.0488155 18.8535534,15.8535534 C19.0488155,15.6582912 19.0488155,15.3417088 18.8535534,15.1464466 L12.8535534,9.14644661 C12.6582912,8.95118446 12.3417088,8.95118446 12.1464466,9.14644661 L6.14644661,15.1464466 C5.95118446,15.3417088 5.95118446,15.6582912 6.14644661,15.8535534 C6.34170876,16.0488155 6.65829124,16.0488155 6.85355339,15.8535534 L12.5,10.2071068 Z" id="Shape" fill="#000000" fill-rule="nonzero"></path>
    </g>
</svg>
